X:68
T:a Trip to Galloway
O:england
M:6/8
A:North-West
R:Jig
K:D
B/c/|\
dcB AFd| DFD AFD| dcB AFD| EFA B2B/c/|\
dcB AFd| DFD AFD| GBG FAF| DFA B2::\
A|\
d2a afd| c2e ecA| d2a afd| AFA B2A|\
dfa afd| cea ecA| dcB AFd| EFA B2:|


